rospo-light/48x48/apps/libreoffice-math.svg

<?xml version="1.0" encoding="UTF-8" standalone="no"?>
<svg
   xmlns:dc="http://purl.org/dc/elements/1.1/"
   xmlns:cc="http://creativecommons.org/ns#"
   xmlns:rdf="http://www.w3.org/1999/02/22-rdf-syntax-ns#"
   xmlns:svg="http://www.w3.org/2000/svg"
   xmlns="http://www.w3.org/2000/svg"
   xmlns:sodipodi="http://sodipodi.sourceforge.net/DTD/sodipodi-0.dtd"
   xmlns:inkscape="http://www.inkscape.org/namespaces/inkscape"
   height="32"
   width="32"
   version="1"
   id="svg14"
   sodipodi:docname="libreoffice-math.svg"
   inkscape:version="0.92.1 r">
  <metadata
     id="metadata20">
    <rdf:RDF>
      <cc:Work
         rdf:about="">
        <dc:format>image/svg+xml</dc:format>
        <dc:type
           rdf:resource="http://purl.org/dc/dcmitype/StillImage" />
      </cc:Work>
    </rdf:RDF>
  </metadata>
  <defs
     id="defs18" />
  <sodipodi:namedview
     pagecolor="#ffffff"
     bordercolor="#666666"
     borderopacity="1"
     objecttolerance="10"
     gridtolerance="10"
     guidetolerance="10"
     inkscape:pageopacity="0"
     inkscape:pageshadow="2"
     inkscape:window-width="1680"
     inkscape:window-height="963"
     id="namedview16"
     showgrid="false"
     inkscape:zoom="3.6875"
     inkscape:cx="-40.707961"
     inkscape:cy="-2.0569959"
     inkscape:window-x="0"
     inkscape:window-y="0"
     inkscape:window-maximized="1"
     inkscape:current-layer="svg14" />
  <path
     inkscape:connector-curvature="0"
     style="opacity:1;fill:#b3b3b3;fill-opacity:1;fill-rule:evenodd;stroke:none;stroke-width:1.03534329;stroke-linecap:round;stroke-linejoin:bevel;stroke-miterlimit:4;stroke-dasharray:none;stroke-dashoffset:0;stroke-opacity:1"
     d="M 30.101562,12.222656 V 7.4726562 c 0,-3.0886508 -2.485568,-5.5742187 -5.574219,-5.5742187 h -4.75 z"
     id="path4496" />
  <path
     inkscape:connector-curvature="0"
     style="opacity:1;fill:#b3b3b3;fill-opacity:1;fill-rule:evenodd;stroke:none;stroke-width:1.03534329;stroke-linecap:round;stroke-linejoin:bevel;stroke-miterlimit:4;stroke-dasharray:none;stroke-dashoffset:0;stroke-opacity:1"
     d="M 18.111328,1.8984375 H 7.474609 c -3.088651,0 -5.576172,2.4855679 -5.576172,5.5742187 V 24.525391 c 0,3.088651 2.487521,5.576172 5.576172,5.576172 h 17.052734 c 3.088651,0 5.574219,-2.487521 5.574219,-5.576172 V 13.888672 Z"
     id="path4494" />
  <path
     inkscape:connector-curvature="0"
     style="opacity:1;fill:#ffffff;fill-opacity:1;fill-rule:evenodd;stroke:none;stroke-width:1.03534329;stroke-linecap:round;stroke-linejoin:bevel;stroke-miterlimit:4;stroke-dasharray:none;stroke-dashoffset:0;stroke-opacity:1"
     d="M 18.111328,1.8984375 30.101562,13.888672 V 12.222656 L 19.777343,1.8984375 Z"
     id="rect4497-3-36" />
  <path
     inkscape:connector-curvature="0"
     style="color:#000000;opacity:1;fill:#ffffff;fill-opacity:1;stroke:#ffffff;stroke-width:0.30000001;stroke-miterlimit:4;stroke-dasharray:none;stroke-opacity:1;enable-background:new"
     d="m 12.288958,13.191766 h 12.198434 v 1.172249 H 13.24106 l -2.233136,10.660442 -0.366915,1.648183 -0.7326558,-1.501652 -2.3444993,-4.688999 1.025718,-0.51286 1.5752701,3.186995 2.014862,-9.487839 z m 2.820668,2.344499 h 1.17225 l 2.344499,3.736547 2.344501,-3.736547 h 1.17225 l -2.930625,4.689 2.930625,4.688999 h -1.17225 l -2.344501,-3.736545 -2.344499,3.736545 h -1.17225 l 2.930626,-4.688999 z"
     id="path12" />
</svg>

<?xml version="1.0" encoding="UTF-8"?>
<svg xmlns="http://www.w3.org/2000/svg" xmlns:xlink="http://www.w3.org/1999/xlink" width="36pt" height="36pt" viewBox="0 0 36 36" version="1.1">
<defs>
<clipPath id="clip1">
  <rect width="36" height="36"/>
</clipPath>
<g id="surface6" clip-path="url(#clip1)">
<path style="fill-rule:nonzero;fill:rgb(100%,100%,100%);fill-opacity:1;stroke-width:0.3;stroke-linecap:butt;stroke-linejoin:miter;stroke:rgb(100%,100%,100%);stroke-opacity:1;stroke-miterlimit:4;" d="M 12.288194 13.190972 L 24.486111 13.190972 L 24.486111 14.364583 L 13.239583 14.364583 L 11.006944 25.024306 L 10.642361 26.673611 L 9.909722 25.170139 L 7.5625 20.482639 L 8.590278 19.96875 L 10.163194 23.15625 L 12.180556 13.666667 Z M 15.111111 15.534722 L 16.28125 15.534722 L 18.625 19.274306 L 20.972222 15.534722 L 22.142361 15.534722 L 19.211806 20.225694 L 22.142361 24.913194 L 20.972222 24.913194 L 18.625 21.177083 L 16.28125 24.913194 L 15.111111 24.913194 L 18.041667 20.225694 Z M 15.111111 15.534722 " transform="matrix(1.125,0,0,1.125,0,0)"/>
</g>
</defs>
<g id="surface1">
<path style=" stroke:none;fill-rule:evenodd;fill:rgb(70.196078%,70.196078%,70.196078%);fill-opacity:1;" d="M 33.863281 13.75 L 33.863281 8.40625 C 33.863281 4.933594 31.066406 2.136719 27.59375 2.136719 L 22.25 2.136719 Z M 33.863281 13.75 "/>
<path style=" stroke:none;fill-rule:evenodd;fill:rgb(70.196078%,70.196078%,70.196078%);fill-opacity:1;" d="M 20.375 2.136719 L 8.410156 2.136719 C 4.933594 2.136719 2.136719 4.933594 2.136719 8.40625 L 2.136719 27.589844 C 2.136719 31.066406 4.933594 33.863281 8.410156 33.863281 L 27.59375 33.863281 C 31.066406 33.863281 33.863281 31.066406 33.863281 27.589844 L 33.863281 15.625 Z M 20.375 2.136719 "/>
<path style=" stroke:none;fill-rule:evenodd;fill:rgb(100%,100%,100%);fill-opacity:1;" d="M 20.375 2.136719 L 33.863281 15.625 L 33.863281 13.75 L 22.25 2.136719 Z M 20.375 2.136719 "/>
<use xlink:href="#surface6"/>
</g>
</svg>
